src/icons/arrow-right-b.svg

<svg xmlns="http://www.w3.org/2000/svg" width="512" height="512" viewBox="0 0 512 512">
    <path d="M184.8 406.6l2.1-1.8 156.5-136c5.3-4.6 8.6-11.5 8.6-19.2 0-7.7-3.4-14.6-8.6-19.2L187.2 94.5l-2.6-2.3c-2.5-1.7-5.5-2.7-8.7-2.7-8.8 0-15.8 7.4-15.8 16.6v286.8c0 9.2 7.1 16.6 15.8 16.6 3.2 0 6.3-1.1 8.9-2.9z"/>
</svg>

<?xml version="1.0" encoding="UTF-8"?>
<svg width="512px" height="512px" viewBox="0 0 512 512" version="1.1" xmlns="http://www.w3.org/2000/svg" xmlns:xlink="http://www.w3.org/1999/xlink">
    <!-- Generator: Sketch 62 (91390) - https://sketch.com -->
    <title>arrow-right-b</title>
    <desc>Created with Sketch.</desc>
    <g id="arrow-right-b" stroke="none" stroke-width="1" fill="none" fill-rule="evenodd">
        <path d="M184.8,406.6 L186.9,404.8 L343.4,268.8 C348.7,264.2 352,257.3 352,249.6 C352,241.9 348.6,235 343.4,230.4 L187.2,94.5 L184.6,92.2 C182.1,90.5 179.1,89.5 175.9,89.5 C167.1,89.5 160.1,96.9 160.1,106.1 L160.1,392.9 C160.1,402.1 167.2,409.5 175.9,409.5 C179.1,409.5 182.2,408.4 184.8,406.6 Z" id="Path" fill="#000000" fill-rule="nonzero"></path>
    </g>
</svg>
